src/assets/img/logo.svg

<svg width="128" height="24" viewBox="0 0 128 24" fill="none" xmlns="http://www.w3.org/2000/svg">
<path d="M6.67201 18.12L2.13601 3.456L0.312012 2.544V2.16H7.27201V2.544L5.25601 3.456L8.11201 13.152H8.20801L12.384 2.04H13.584L17.784 13.152H17.904L20.76 3.456L18.72 2.544V2.16H24.096V2.544L22.488 3.384L17.88 18.12H16.704L12.384 7.008H12.24L7.82401 18.12H6.67201Z" fill="#C4C4C4"/>
<path d="M29.9822 18.24C28.3822 18.24 27.1102 17.768 26.1662 16.824C25.2382 15.88 24.7742 14.624 24.7742 13.056C24.7742 11.84 25.0302 10.768 25.5422 9.84C26.0542 8.912 26.7262 8.184 27.5582 7.656C28.4062 7.128 29.3422 6.864 30.3662 6.864C31.6462 6.864 32.6462 7.304 33.3662 8.184C34.0862 9.064 34.4542 10.304 34.4702 11.904L34.3742 12.024H27.4622C27.4622 12.744 27.5902 13.408 27.8462 14.016C28.1022 14.608 28.5182 15.088 29.0942 15.456C29.6702 15.808 30.4302 15.984 31.3742 15.984C31.8222 15.984 32.3022 15.92 32.8142 15.792C33.3262 15.664 33.8622 15.448 34.4222 15.144H34.4942V15.48C34.1102 16.264 33.5262 16.92 32.7422 17.448C31.9582 17.976 31.0382 18.24 29.9822 18.24ZM29.8862 7.944C29.2462 7.944 28.7182 8.208 28.3022 8.736C27.8862 9.264 27.6222 10 27.5102 10.944H32.1422C31.9982 9.84 31.7342 9.064 31.3502 8.616C30.9662 8.168 30.4782 7.944 29.8862 7.944Z" fill="#C4C4C4"/>
<path d="M37.7175 18.144V2.736L36.2295 1.56V1.32L40.2615 0H40.5015V8.328H40.6215C41.2135 7.832 41.7815 7.464 42.3255 7.224C42.8855 6.984 43.4855 6.864 44.1255 6.864C44.8775 6.864 45.5575 7.08 46.1655 7.512C46.7895 7.928 47.2855 8.528 47.6535 9.312C48.0215 10.08 48.2055 11 48.2055 12.072C48.2055 13.368 47.9495 14.48 47.4375 15.408C46.9415 16.32 46.2615 17.024 45.3975 17.52C44.5495 18 43.6135 18.24 42.5895 18.24C41.8855 18.24 41.2375 18.168 40.6455 18.024C40.0535 17.896 39.5255 17.696 39.0615 17.424L37.9575 18.144H37.7175ZM42.4215 8.712C41.8135 8.712 41.1735 8.904 40.5015 9.288V16.152C41.1095 16.744 41.8535 17.04 42.7335 17.04C43.1975 17.04 43.6375 16.904 44.0535 16.632C44.4695 16.36 44.8055 15.904 45.0615 15.264C45.3175 14.624 45.4455 13.752 45.4455 12.648C45.4455 11.288 45.1415 10.296 44.5335 9.672C43.9255 9.032 43.2215 8.712 42.4215 8.712Z" fill="#C4C4C4"/>
<path d="M54.2593 18.24C53.4753 18.24 52.8033 18.168 52.2433 18.024C51.6833 17.88 51.1233 17.672 50.5633 17.4V14.64H50.8993L51.7153 15.936C52.2753 16.816 53.0913 17.256 54.1633 17.256C54.7873 17.256 55.2673 17.128 55.6033 16.872C55.9393 16.6 56.1073 16.232 56.1073 15.768C56.1073 15.368 56.0113 15.056 55.8193 14.832C55.6273 14.592 55.3233 14.376 54.9073 14.184C54.5073 13.992 53.9953 13.76 53.3713 13.488C52.5073 13.12 51.8593 12.704 51.4273 12.24C50.9953 11.76 50.7793 11.144 50.7793 10.392C50.7793 9.736 50.9473 9.144 51.2833 8.616C51.6353 8.072 52.0993 7.648 52.6753 7.344C53.2673 7.024 53.9073 6.864 54.5953 6.864C55.1553 6.864 55.6913 6.928 56.2033 7.056C56.7153 7.184 57.2273 7.376 57.7393 7.632V10.392H57.3793L56.6113 9.216C56.0513 8.336 55.3793 7.896 54.5953 7.896C54.0993 7.896 53.6913 8.024 53.3713 8.28C53.0673 8.52 52.9153 8.872 52.9153 9.336C52.9153 9.8 53.0833 10.168 53.4193 10.44C53.7713 10.712 54.3953 11.032 55.2913 11.4C55.7393 11.608 56.1873 11.824 56.6353 12.048C57.0833 12.272 57.4513 12.592 57.7393 13.008C58.0433 13.424 58.1953 14.008 58.1953 14.76C58.1953 15.496 57.9953 16.128 57.5953 16.656C57.2113 17.168 56.7153 17.56 56.1073 17.832C55.4993 18.104 54.8833 18.24 54.2593 18.24Z" fill="#C4C4C4"/>
<path d="M64.6684 18.24C63.8044 18.24 63.0764 18.032 62.4844 17.616C61.9084 17.2 61.6204 16.616 61.6204 15.864V8.208H59.7964V7.968L61.9564 7.104L64.0684 4.464H64.4044V7.104H67.6684V8.208H64.4044V15.336C64.4044 15.736 64.5804 16.04 64.9324 16.248C65.2844 16.44 65.7084 16.536 66.2044 16.536C66.5084 16.536 66.7804 16.52 67.0204 16.488C67.2764 16.456 67.5084 16.416 67.7164 16.368L67.7884 16.392V16.728C67.5644 17.096 67.1724 17.44 66.6124 17.76C66.0524 18.08 65.4044 18.24 64.6684 18.24Z" fill="#C4C4C4"/>
<path d="M74.8718 18.24C73.7838 18.24 72.8158 17.984 71.9678 17.472C71.1358 16.96 70.4878 16.28 70.0238 15.432C69.5598 14.568 69.3278 13.608 69.3278 12.552C69.3278 11.496 69.5598 10.544 70.0238 9.696C70.4878 8.832 71.1358 8.144 71.9678 7.632C72.8158 7.12 73.7838 6.864 74.8718 6.864C75.9758 6.864 76.9438 7.12 77.7758 7.632C78.6078 8.144 79.2558 8.832 79.7198 9.696C80.1838 10.544 80.4158 11.496 80.4158 12.552C80.4158 13.608 80.1838 14.568 79.7198 15.432C79.2558 16.28 78.6078 16.96 77.7758 17.472C76.9438 17.984 75.9758 18.24 74.8718 18.24ZM75.1598 17.112C75.7038 17.112 76.1438 16.92 76.4798 16.536C76.8318 16.152 77.0878 15.648 77.2478 15.024C77.4078 14.4 77.4878 13.736 77.4878 13.032C77.4878 12.168 77.3838 11.352 77.1758 10.584C76.9838 9.8 76.6798 9.168 76.2638 8.688C75.8478 8.208 75.3038 7.968 74.6318 7.968C74.0878 7.968 73.6398 8.16 73.2878 8.544C72.9358 8.928 72.6718 9.432 72.4958 10.056C72.3358 10.68 72.2558 11.344 72.2558 12.048C72.2558 12.912 72.3518 13.728 72.5438 14.496C72.7518 15.264 73.0718 15.896 73.5038 16.392C73.9358 16.872 74.4878 17.112 75.1598 17.112Z" fill="#C4C4C4"/>
<path d="M87.8728 18.24C86.2728 18.24 85.0008 17.768 84.0568 16.824C83.1288 15.88 82.6648 14.624 82.6648 13.056C82.6648 11.84 82.9208 10.768 83.4328 9.84C83.9448 8.912 84.6168 8.184 85.4488 7.656C86.2968 7.128 87.2328 6.864 88.2568 6.864C89.5368 6.864 90.5368 7.304 91.2568 8.184C91.9768 9.064 92.3448 10.304 92.3608 11.904L92.2648 12.024H85.3528C85.3528 12.744 85.4808 13.408 85.7368 14.016C85.9928 14.608 86.4088 15.088 86.9848 15.456C87.5608 15.808 88.3208 15.984 89.2648 15.984C89.7128 15.984 90.1928 15.92 90.7048 15.792C91.2168 15.664 91.7528 15.448 92.3128 15.144H92.3848V15.48C92.0008 16.264 91.4168 16.92 90.6328 17.448C89.8488 17.976 88.9288 18.24 87.8728 18.24ZM87.7768 7.944C87.1368 7.944 86.6088 8.208 86.1928 8.736C85.7768 9.264 85.5128 10 85.4008 10.944H90.0328C89.8888 9.84 89.6248 9.064 89.2408 8.616C88.8568 8.168 88.3688 7.944 87.7768 7.944Z" fill="#C4C4C4"/>
<path d="M94.3339 18V17.616L95.8939 16.848V9.6L94.4059 8.52V8.28L98.1979 6.864H98.4379L98.6539 8.64H98.7739C99.3499 8.064 99.9019 7.624 100.43 7.32C100.974 7.016 101.598 6.864 102.302 6.864C103.07 6.864 103.726 7.04 104.27 7.392C104.83 7.728 105.198 8.232 105.374 8.904H105.446C106.086 8.248 106.686 7.744 107.246 7.392C107.822 7.04 108.486 6.864 109.238 6.864C110.166 6.864 110.926 7.112 111.518 7.608C112.11 8.104 112.406 8.824 112.406 9.768V16.848L113.966 17.616V18H108.206V17.616L109.622 16.848V10.8C109.622 10.192 109.446 9.728 109.094 9.408C108.742 9.072 108.286 8.904 107.726 8.904C107.294 8.904 106.878 8.984 106.478 9.144C106.078 9.288 105.742 9.496 105.47 9.768V16.848L106.862 17.616V18H101.342V17.616L102.686 16.848V10.8C102.686 10.192 102.51 9.728 102.158 9.408C101.806 9.072 101.35 8.904 100.79 8.904C100.438 8.904 100.062 8.968 99.6619 9.096C99.2779 9.224 98.9499 9.4 98.6779 9.624V16.848L99.9979 17.616V18H94.3339Z" fill="#C4C4C4"/>
<path d="M115.545 23.52V23.136L117.105 22.368V9.696L115.617 8.52V8.28L119.409 6.864H119.649L119.841 8.328H119.985C120.577 7.816 121.153 7.448 121.713 7.224C122.273 6.984 122.873 6.864 123.513 6.864C124.265 6.864 124.945 7.08 125.553 7.512C126.177 7.928 126.673 8.528 127.041 9.312C127.409 10.08 127.593 11 127.593 12.072C127.593 13.368 127.337 14.48 126.825 15.408C126.329 16.32 125.657 17.024 124.809 17.52C123.977 18 123.065 18.24 122.073 18.24C121.241 18.24 120.513 18.16 119.889 18V22.368L121.689 23.136V23.52H115.545ZM121.809 8.712C121.201 8.712 120.561 8.904 119.889 9.288V16.152C120.513 16.744 121.305 17.04 122.265 17.04C122.713 17.04 123.129 16.912 123.513 16.656C123.897 16.4 124.209 15.968 124.449 15.36C124.705 14.736 124.833 13.888 124.833 12.816C124.833 11.408 124.529 10.376 123.921 9.72C123.313 9.048 122.609 8.712 121.809 8.712Z" fill="#C4C4C4"/>
</svg>

<svg width="128" height="24" viewBox="0 0 128 24" fill="none" xmlns="http://www.w3.org/2000/svg"><path d="M6.672 18.12L2.136 3.456.312 2.544V2.16h6.96v.384l-2.016.912 2.856 9.696h.096L12.384 2.04h1.2l4.2 11.112h.12l2.856-9.696-2.04-.912V2.16h5.376v.384l-1.608.84L17.88 18.12h-1.176l-4.32-11.112h-.144L7.824 18.12H6.672zm23.31.12c-1.6 0-2.872-.472-3.816-1.416-.928-.944-1.392-2.2-1.392-3.768 0-1.216.256-2.288.768-3.216.512-.928 1.184-1.656 2.016-2.184a5.208 5.208 0 0 1 2.808-.792c1.28 0 2.28.44 3 1.32.72.88 1.088 2.12 1.104 3.72l-.096.12h-6.912c0 .72.128 1.384.384 1.992a3.187 3.187 0 0 0 1.248 1.44c.576.352 1.336.528 2.28.528.448 0 .928-.064 1.44-.192a6.907 6.907 0 0 0 1.608-.648h.072v.336c-.384.784-.968 1.44-1.752 1.968s-1.704.792-2.76.792zm-.096-10.296c-.64 0-1.168.264-1.584.792-.416.528-.68 1.264-.792 2.208h4.632c-.144-1.104-.408-1.88-.792-2.328a1.844 1.844 0 0 0-1.464-.672zm7.832 10.2V2.736L36.229 1.56v-.24L40.261 0h.24v8.328h.12c.593-.496 1.16-.864 1.704-1.104a4.52 4.52 0 0 1 1.8-.36 3.44 3.44 0 0 1 2.04.648c.624.416 1.12 1.016 1.489 1.8.367.768.551 1.688.551 2.76 0 1.296-.255 2.408-.767 3.336a5.294 5.294 0 0 1-2.04 2.112c-.849.48-1.785.72-2.809.72a8.22 8.22 0 0 1-1.944-.216 5.342 5.342 0 0 1-1.584-.6l-1.103.72h-.24zm4.703-9.432c-.608 0-1.248.192-1.92.576v6.864c.608.592 1.352.888 2.233.888.463 0 .904-.136 1.32-.408.415-.272.752-.728 1.008-1.368.256-.64.384-1.512.384-2.616 0-1.36-.304-2.352-.913-2.976-.608-.64-1.312-.96-2.111-.96zM54.26 18.24c-.785 0-1.457-.072-2.017-.216a8.942 8.942 0 0 1-1.68-.624v-2.76h.336l.816 1.296c.56.88 1.376 1.32 2.448 1.32.624 0 1.104-.128 1.44-.384.336-.272.504-.64.504-1.104 0-.4-.096-.712-.288-.936-.192-.24-.496-.456-.912-.648a47.87 47.87 0 0 0-1.536-.696c-.864-.368-1.512-.784-1.944-1.248-.432-.48-.648-1.096-.648-1.848 0-.656.168-1.248.504-1.776a3.672 3.672 0 0 1 1.392-1.272 3.975 3.975 0 0 1 1.92-.48c.56 0 1.096.064 1.608.192s1.024.32 1.536.576v2.76h-.36l-.768-1.176c-.56-.88-1.232-1.32-2.016-1.32-.496 0-.904.128-1.224.384-.304.24-.456.592-.456 1.056 0 .464.168.832.504 1.104.352.272.976.592 1.872.96.448.208.896.424 1.344.648.448.224.816.544 1.104.96.304.416.456 1 .456 1.752 0 .736-.2 1.368-.6 1.896-.384.512-.88.904-1.488 1.176a4.486 4.486 0 0 1-1.848.408zm10.408 0c-.864 0-1.592-.208-2.184-.624-.576-.416-.864-1-.864-1.752V8.208h-1.824v-.24l2.16-.864 2.112-2.64h.336v2.64h3.264v1.104h-3.264v7.128c0 .4.176.704.528.912.352.192.776.288 1.272.288a6.94 6.94 0 0 0 1.512-.168l.072.024v.336c-.224.368-.616.712-1.176 1.032-.56.32-1.208.48-1.944.48zm10.204 0c-1.088 0-2.056-.256-2.904-.768a5.406 5.406 0 0 1-1.944-2.04c-.464-.864-.696-1.824-.696-2.88 0-1.056.232-2.008.696-2.856a5.358 5.358 0 0 1 1.944-2.064c.848-.512 1.816-.768 2.904-.768 1.104 0 2.072.256 2.904.768.832.512 1.48 1.2 1.944 2.064.464.848.696 1.8.696 2.856 0 1.056-.232 2.016-.696 2.88a5.406 5.406 0 0 1-1.944 2.04c-.832.512-1.8.768-2.904.768zm.288-1.128c.544 0 .984-.192 1.32-.576.352-.384.608-.888.768-1.512.16-.624.24-1.288.24-1.992 0-.864-.104-1.68-.312-2.448-.192-.784-.496-1.416-.912-1.896-.416-.48-.96-.72-1.632-.72-.544 0-.992.192-1.344.576-.352.384-.616.888-.792 1.512a7.995 7.995 0 0 0-.24 1.992c0 .864.096 1.68.288 2.448.208.768.528 1.4.96 1.896.432.48.984.72 1.656.72zm12.713 1.128c-1.6 0-2.872-.472-3.816-1.416-.928-.944-1.392-2.2-1.392-3.768 0-1.216.256-2.288.768-3.216.512-.928 1.184-1.656 2.016-2.184a5.208 5.208 0 0 1 2.808-.792c1.28 0 2.28.44 3 1.32.72.88 1.088 2.12 1.104 3.72l-.096.12h-6.912c0 .72.128 1.384.384 1.992a3.187 3.187 0 0 0 1.248 1.44c.576.352 1.336.528 2.28.528.448 0 .928-.064 1.44-.192a6.907 6.907 0 0 0 1.608-.648h.072v.336c-.384.784-.968 1.44-1.752 1.968s-1.704.792-2.76.792zm-.096-10.296c-.64 0-1.168.264-1.584.792-.416.528-.68 1.264-.792 2.208h4.632c-.144-1.104-.408-1.88-.792-2.328a1.844 1.844 0 0 0-1.464-.672zM94.334 18v-.384l1.56-.768V9.6l-1.488-1.08v-.24l3.792-1.416h.24l.216 1.776h.12c.576-.576 1.128-1.016 1.656-1.32.544-.304 1.168-.456 1.872-.456.768 0 1.424.176 1.968.528.56.336.928.84 1.104 1.512h.072c.64-.656 1.24-1.16 1.8-1.512.576-.352 1.24-.528 1.992-.528.928 0 1.688.248 2.28.744.592.496.888 1.216.888 2.16v7.08l1.56.768V18h-5.76v-.384l1.416-.768V10.8c0-.608-.176-1.072-.528-1.392-.352-.336-.808-.504-1.368-.504-.432 0-.848.08-1.248.24a2.69 2.69 0 0 0-1.008.624v7.08l1.392.768V18h-5.52v-.384l1.344-.768V10.8c0-.608-.176-1.072-.528-1.392-.352-.336-.808-.504-1.368-.504a3.71 3.71 0 0 0-1.128.192 3.044 3.044 0 0 0-.984.528v7.224l1.32.768V18h-5.664zm21.211 5.52v-.384l1.56-.768V9.696l-1.488-1.176v-.24l3.792-1.416h.24l.192 1.464h.144c.592-.512 1.168-.88 1.728-1.104a4.52 4.52 0 0 1 1.8-.36 3.44 3.44 0 0 1 2.04.648c.624.416 1.12 1.016 1.488 1.8.368.768.552 1.688.552 2.76 0 1.296-.256 2.408-.768 3.336-.496.912-1.168 1.616-2.016 2.112-.832.48-1.744.72-2.736.72-.832 0-1.56-.08-2.184-.24v4.368l1.8.768v.384h-6.144zm6.264-14.808c-.608 0-1.248.192-1.92.576v6.864c.624.592 1.416.888 2.376.888.448 0 .864-.128 1.248-.384s.696-.688.936-1.296c.256-.624.384-1.472.384-2.544 0-1.408-.304-2.44-.912-3.096-.608-.672-1.312-1.008-2.112-1.008z" fill="#C4C4C4"/></svg>
